X:291
T:Pigtown fling
C:anon.
O:Ireland
R:Reel
Z:Transcribed by Frank Nordberg - http://www.musicaviva.com
F:http://abc.musicaviva.com/tunes/ireland/pigtown-fling/pigtown-fling-1.abc
M:C
L:1/8
Q:1/4=200
K:G
(3DEF|"G"G2ge d2ed|"G"B2gd edBA|"G"G2ge d2ed|"G"BAAG "D"AcBA|
"G"G2ge d2ed|"G"B2gd edBd|"C"e2ef edef|"G"gedB "D"AcBA|"G"G6 z2||
"Em"B2e2 efge|"D"fedf edBA|"Em"B2e2 efge|"D7"fgaf "G"g2|]
W:
W:
W:  From Musica Viva - http://www.musicaviva.com
W:  the Internet center for free sheet music downloads.
